icons/1_Primary/Private Internet Access.svg

<svg xmlns="http://www.w3.org/2000/svg" width="1024" height="1024" fill="none">
   <g clip-path="url(#a)">
      <path fill="#98DC9A" d="M512 1024c282.77 0 512-229.23 512-512S794.77 0 512 0 0 229.23 0 512s229.23 512 512 512Z"/>
      <path fill="#fff" d="M485.92 359.45c0-15.84-19.15-23.77-30.34-12.58-11.19 11.19-3.28 30.36 12.56 30.36 4.716 0 9.238-1.873 12.572-5.208a17.776 17.776 0 0 0 5.208-12.572Zm70-17.76c-15.84 0-23.78 19.14-12.58 30.35 11.2 11.21 30.36 3.26 30.35-12.58a17.772 17.772 0 0 0-17.77-17.76m-19.16 47.14a36.91 36.91 0 0 1-49.43 0c-4.49-3.79-10.39 2.6-6.25 6.78a45.21 45.21 0 0 0 62 0 4.618 4.618 0 0 0 .25-6.53 4.618 4.618 0 0 0-6.53-.25m163.82 68.76v-.26a36.998 36.998 0 0 0-26.91-35.61V390a156.754 156.754 0 0 0-45.922-110.856 156.727 156.727 0 0 0-50.869-33.976 156.724 156.724 0 0 0-59.999-11.918h-6a156.75 156.75 0 0 0-110.835 45.912A156.737 156.737 0 0 0 354.18 390v30.91A37.002 37.002 0 0 0 323.77 457a52.681 52.681 0 0 0-7.27 26.69v200.98a52.904 52.904 0 0 0 39.1 51 38.685 38.685 0 0 0 35.37 23h44a38.664 38.664 0 0 0 34.48-21.13h80.65a38.668 38.668 0 0 0 34.45 21.13h44a38.711 38.711 0 0 0 34.84-21.93 52.921 52.921 0 0 0 44.17-52.15V483.74a52.649 52.649 0 0 0-7.01-26.15l.07.01ZM538.09 575.24c0 .08-.16.28-.67.7a16.372 16.372 0 0 0-3.24 3.29 5.356 5.356 0 0 0-.33 1.45L544 655.57a5.628 5.628 0 0 1-3.002 6.514 5.637 5.637 0 0 1-2.508.556h-52.67a5.621 5.621 0 0 1-5.5-7.09l10.14-73.1a8.71 8.71 0 0 0-.46-3.21 16.372 16.372 0 0 0-3.24-3.29c-.19-.15-.32-.27-.43-.37a43.34 43.34 0 1 1 51.75-.32l.01-.02Zm76.42-154.93h-22.17a36.841 36.841 0 0 0-25.82 10.51H457.77A36.82 36.82 0 0 0 432 420.31h-18.55V387.4a98.163 98.163 0 0 1 98.13-98.15h4.79a98.163 98.163 0 0 1 98.13 98.15l.01 32.91Z"/>
   </g>
   <defs>
      <clipPath id="a">
         <path fill="#fff" d="M0 0h1024v1024H0z"/>
      </clipPath>
   </defs>
</svg>

<svg width="1024" height="1024" viewBox="0 0 1024 1024" fill="none" xmlns="http://www.w3.org/2000/svg">
<g clip-path="url(#clip0_2_3213)">
<path d="M512 1024C794.77 1024 1024 794.77 1024 512C1024 229.23 794.77 0 512 0C229.23 0 0 229.23 0 512C0 794.77 229.23 1024 512 1024Z" fill="#98DC9A"/>
<path d="M485.92 359.45C485.92 343.61 466.77 335.68 455.58 346.87C444.39 358.06 452.3 377.23 468.14 377.23C472.856 377.23 477.378 375.357 480.712 372.022C484.047 368.688 485.92 364.166 485.92 359.45ZM555.92 341.69C540.08 341.69 532.14 360.83 543.34 372.04C554.54 383.25 573.7 375.3 573.69 359.46C573.687 354.749 571.814 350.232 568.482 346.901C565.15 343.571 560.631 341.7 555.92 341.7M536.76 388.84C529.98 394.953 521.174 398.336 512.045 398.336C502.916 398.336 494.11 394.953 487.33 388.84C482.84 385.05 476.94 391.44 481.08 395.62C489.468 403.522 500.557 407.922 512.08 407.922C523.604 407.922 534.692 403.522 543.08 395.62C543.979 394.787 544.511 393.631 544.557 392.407C544.604 391.182 544.163 389.989 543.33 389.09C542.497 388.191 541.341 387.659 540.117 387.613C538.892 387.566 537.699 388.007 536.8 388.84M700.62 457.6V457.34C700.623 449.284 697.996 441.447 693.139 435.02C688.282 428.593 681.461 423.927 673.71 421.73V390C673.711 369.412 669.656 349.025 661.777 330.004C653.898 310.983 642.348 293.7 627.788 279.144C613.228 264.588 595.943 253.042 576.919 245.168C557.896 237.293 537.508 233.243 516.92 233.25H510.92C490.336 233.25 469.953 237.305 450.936 245.182C431.919 253.06 414.639 264.606 400.085 279.162C385.53 293.717 373.985 310.997 366.108 330.015C358.232 349.033 354.179 369.416 354.18 390V420.91C345.702 422.444 338.026 426.889 332.474 433.477C326.923 440.066 323.844 448.385 323.77 457C319.012 465.09 316.503 474.305 316.5 483.69V684.67C316.515 696.284 320.352 707.571 327.418 716.788C334.485 726.005 344.388 732.64 355.6 735.67C358.637 742.516 363.596 748.333 369.874 752.415C376.153 756.498 383.481 758.671 390.97 758.67H434.97C442.107 758.673 449.107 756.701 455.192 752.971C461.278 749.242 466.213 743.901 469.45 737.54H550.1C553.335 743.896 558.265 749.234 564.345 752.964C570.425 756.693 577.418 758.668 584.55 758.67H628.55C635.832 758.662 642.964 756.6 649.127 752.72C655.29 748.841 660.233 743.302 663.39 736.74C675.729 734.671 686.936 728.298 695.022 718.751C703.108 709.204 707.55 697.101 707.56 684.59V483.74C707.543 474.561 705.126 465.547 700.55 457.59L700.62 457.6ZM538.09 575.24C538.09 575.32 537.93 575.52 537.42 575.94C536.19 576.878 535.099 577.986 534.18 579.23C534.003 579.696 533.892 580.184 533.85 580.68L544 655.57C544.222 656.409 544.247 657.288 544.073 658.138C543.899 658.988 543.531 659.787 542.998 660.471C542.465 661.156 541.78 661.708 540.998 662.084C540.216 662.46 539.358 662.65 538.49 662.64H485.82C484.95 662.652 484.09 662.461 483.306 662.084C482.522 661.707 481.837 661.152 481.304 660.465C480.77 659.778 480.404 658.976 480.233 658.123C480.063 657.27 480.092 656.39 480.32 655.55L490.46 582.45C490.509 581.361 490.353 580.272 490 579.24C489.081 577.996 487.99 576.888 486.76 575.95C486.57 575.8 486.44 575.68 486.33 575.58C478.988 570.186 473.533 562.616 470.739 553.945C467.945 545.274 467.954 535.944 470.765 527.278C473.577 518.613 479.047 511.054 486.399 505.674C493.752 500.295 502.612 497.37 511.722 497.313C520.832 497.257 529.728 500.073 537.146 505.361C544.564 510.648 550.128 518.139 553.046 526.769C555.964 535.399 556.089 544.729 553.402 553.434C550.716 562.139 545.354 569.776 538.08 575.26L538.09 575.24ZM614.51 420.31H592.34C582.689 420.296 573.418 424.07 566.52 430.82H457.77C450.886 424.08 441.634 420.307 432 420.31H413.45V387.4C413.453 361.373 423.792 336.413 442.193 318.007C460.595 299.602 485.553 289.258 511.58 289.25H516.37C542.397 289.258 567.355 299.602 585.757 318.007C604.158 336.413 614.497 361.373 614.5 387.4L614.51 420.31Z" fill="white"/>
</g>
<defs>
<clipPath id="clip0_2_3213">
<rect width="1024" height="1024" fill="white"/>
</clipPath>
</defs>
</svg>
